!!!OTL: Lied von den sieben Worten Jesu am Kreuz. / Dritte Art.
!!!ARE: Europa, Mitteleuropa, Deutschland
!!!SCT: A0541C
!!!TXL: @@DE
!!!YEM: Copyright 1995, estate of Helmut Schaffrath.
**kern	**text
*M4/1yy	*
*clefC4	*
*k[]	*
*e:	*
{2B	Es
=1	=1
1c	war
1B	ein-
1A	-mal
1B	ein
=2	=2
1d	groſ-
1c	-ſet
1B	Herr,
2r}	.
{2B	Der
=3	=3
1c	ſchickt
1B	ihn
1c	al-
1A	-le
=4	=4
1A	landt
!LO:SIC:o:1F:v	!
1F#	gar
1E	ferr,
2r}	.
{2D	Lies
=5	=5
1E	jhm
1E	ein
1G	Volk
1G	ein-
=6	=6
1E	-la
1D	.
1C	-den,
2r}	.
{2B	ʒu
=7	=7
1c	ei-
1B	-nem
1A	gar
1G	koſt-
=8	=8
1A	-li-
!LO:SIC:o:1F:v	!
1F#	-chen
1E}	mal,
{1D	aus
=9	=9
!LO:SIC:o:1F:v	!
1F#	lieb
1G	vnd
1A	laut-
1A	-ter
=10	=10
1G	Gna-
1F#	.
1.E}	-den
==	==
!!!GTL: Geistliche Volkslieder
!!!AGN: Romanze, Ballade, Lied, religioeses Lied
!! Trillers Gsgb 1555.
!!!ONB: ESAC (Essen Associative Code) Database: ALTDEU
!!!AMT: simple quadruple
!!!AIN: vox
!!!EED: Helmut Schaffrath
!!!EEV: 1.0
!!!URL-scan: https://rosdok.uni-rostock.de/mcrviewer/recordIdentifier/rosdok_ppn738218359/iview2/phys_0721.iview2?x=-495.6391625615763&y=344.75172413140535&scale=0.4629418472063854&rotation=0&layout=singlePageLayout&logicalDiv=log_0007
!!!ENC: Anna Maria Matuszewska
!!!EEV: 2024/20/03
*-	*-
